X:670
T:My Rovin' Eye
R:hornpipe
Z:
M:4/4
K:DDor
G2||"Dm\G"A2 A2 d3e|"C"c2 B2 A2 G2|"Dm\G"A3cd2e2|"C"c6 cc|
"Dm\G"e2 d2 d2 de|"C"c2 B2 A3 G|G2 E2 c2 E2|"G"G8|
"Am"A3G "C"E2 D2|"Dm"D4 EEGE|"C"C3 D "Dm"E2 D2|"Dm"D2 D2 "Am"c2 (A2|
M:2/4
A4)|\
M:4/4
A3 G "C"E2 C2|"Dm" D6 G2||
